**harm	**harte	**timestamp	**phrase	**leadinstrument	**kern
*M4/4	*M4/4	*	*	*	*
*B-:	*B-:	*	*	*	*B-:
1r;	N	0	.	r	1r;
=1	=1	=1	=1	=1	=1
*>A_intro	*>A_intro	*>A_intro	*>A_intro	*>A_intro	*>A_intro
1I	B-:1	0.743	newline	synthesizer	1B- 1dd 1ff
=2	=2	=2	=2	=2	=2
1I	B-:1	3.189	.	synthesizer	1B- 1dd 1ff
=3	=3	=3	=3	=3	=3
2IVc	E-:maj/5	5.635	newline	synthesizer	2e- 2g 2B-
2I	B-:maj	6.855	.	synthesizer	2B- 2dd 2ff
=4	=4	=4	=4	=4	=4
2Vf	F:maj/4	8.074	.	synthesizer	2F 2a 2cc
2I	B-:maj	9.294	.	synthesizer	2B- 2dd 2ff
=5	=5	=5	=5	=5	=5
2IVc	E-:maj/5	10.514	.	synthesizer	2e- 2g 2B-
2I7	B-:maj7	11.733	.	synthesizer	2B- 2dd 2ff 2aa
=6	=6	=6	=6	=6	=6
2ivc	E-:min/5	12.953	.	synthesizer	2e- 2g- 2B-
2I	B-:maj	14.173	.	synthesizer	2B- 2dd 2ff
=7	=7	=7	=7	=7	=7
*>B_verse	*>B_verse	*>B_verse	*>B_verse	*>B_verse	*>B_verse
2IVc	E-:maj/5	15.392	newline	voice	2e- 2g 2B-
2I	B-:maj	16.605	.	voice	2B- 2dd 2ff
=8	=8	=8	=8	=8	=8
2Vf	F:maj/4	17.818	.	voice	2F 2a 2cc
2I	B-:maj	19.031	.	voice	2B- 2dd 2ff
=9	=9	=9	=9	=9	=9
2IVc	E-:maj/5	20.244	.	voice	2e- 2g 2B-
2I7	B-:maj7	21.456	.	voice	2B- 2dd 2ff 2aa
=10	=10	=10	=10	=10	=10
2ivc	E-:min/5	22.669	.	voice	2e- 2g- 2B-
2I	B-:maj	23.882	.	voice	2B- 2dd 2ff
=11	=11	=11	=11	=11	=11
2IVc	E-:maj/5	25.095	newline	voice	2e- 2g 2B-
2I	B-:maj	26.308	.	voice	2B- 2dd 2ff
=12	=12	=12	=12	=12	=12
2Vf	F:maj/4	27.522	.	voice	2F 2a 2cc
2I	B-:maj	28.735	.	voice	2B- 2dd 2ff
=13	=13	=13	=13	=13	=13
2IVc	E-:maj/5	29.949	.	voice	2e- 2g 2B-
2I7	B-:maj7	31.162	.	voice	2B- 2dd 2ff 2aa
=14	=14	=14	=14	=14	=14
2ivc	E-:min/5	32.376	.	voice	2e- 2g- 2B-
2I	B-:maj	33.589	.	voice	2B- 2dd 2ff
=15	=15	=15	=15	=15	=15
*>C_prechorus	*>C_prechorus	*>C_prechorus	*>C_prechorus	*>C_prechorus	*>C_prechorus
2.Im7	B-:7	34.803	newline	voice	2B- 2dd 2ff 2aa
4-VII	A-:sus2	36.623	.	voice	4A- 4cc 4ee-
=16	=16	=16	=16	=16	=16
1vi7	G:min7	37.229	.	voice	1G 1b- 1dd 1ff
=17	=17	=17	=17	=17	=17
2.-VI	G-:maj	39.656	.	voice	2G- 2b- 2dd-
4-VII	A-:sus2(b7)	41.476	.	voice	4A- 4cc 4ee-
=18	=18	=18	=18	=18	=18
4I	B-:maj	42.082	.	voice	4B- 4dd 4ff
4vi7	G:min7	42.689	.	voice	4G 4b- 4dd 4ff
2V	F:maj	43.296	.	voice	2F 2a 2cc
=19	=19	=19	=19	=19	=19
*>D_chorus	*>D_chorus	*>D_chorus	*>D_chorus	*>D_chorus	*>D_chorus
2I	B-:maj	44.509	newline	voice	2B- 2dd 2ff
2Vb	F:maj/3	45.733	.	voice	2f 2A 2cc
=20	=20	=20	=20	=20	=20
2vi	G:min	46.957	.	voice	2G 2b- 2dd
2-VII	A-:maj6	48.181	.	voice	2A- 2cc 2ee-
=21	=21	=21	=21	=21	=21
2IV	E-:maj	49.405	.	voice	2E- 2g 2b-
2Ib	B-:maj/3	50.629	.	voice	2b- 2D 2ff
=22	=22	=22	=22	=22	=22
2II7	C:7	51.853	.	voice	2C 2e 2g 2b-
4V	F:maj	53.077	.	voice	4F 4a 4cc
4V+	F:aug	53.689	.	voice	4F 4a 4cc#
=23	=23	=23	=23	=23	=23
2I	B-:maj	54.301	newline	voice	2B- 2dd 2ff
2Vb	F:maj/3	55.523	.	voice	2f 2A 2cc
=24	=24	=24	=24	=24	=24
2vi	G:min	56.745	.	voice	2G 2b- 2dd
2-VII	A-:maj6	57.968	.	voice	2A- 2cc 2ee-
=25	=25	=25	=25	=25	=25
2IV	E-:maj	59.19	.	voice	2E- 2g 2b-
2Ib	B-:maj/3	60.412	.	voice	2b- 2D 2ff
=26	=26	=26	=26	=26	=26
2-iiio	D-:dim	61.634	.	voice	2D- 2f- 2a--
2ii7	C:min7	62.856	.	voice	2C 2e- 2g 2b-
=27	=27	=27	=27	=27	=27
*>C_trans	*>C_trans	*>C_trans	*>C_trans	*>C_trans	*>C_trans
2.Im7	B-:7	64.078	newline	synthesizer	2B- 2dd 2ff 2aa
4-VII	A-:sus2	65.904	.	synthesizer	4A- 4cc 4ee-
=28	=28	=28	=28	=28	=28
1vi7	G:min7	66.512	.	synthesizer	1G 1b- 1dd 1ff
=29	=29	=29	=29	=29	=29
2.-VI	G-:maj	68.946	.	synthesizer	2G- 2b- 2dd-
4-VII	A-:sus2(b7)	70.772	.	synthesizer	4A- 4cc 4ee-
=30	=30	=30	=30	=30	=30
4I	B-:maj	71.38	.	synthesizer	4B- 4dd 4ff
4VM7f	F:maj7/4	71.988	.	synthesizer	4F 4a 4cc 4ee-
2V	F:maj	72.597	.	synthesizer	2F 2a 2cc
=31	=31	=31	=31	=31	=31
*>B_verse	*>B_verse	*>B_verse	*>B_verse	*>B_verse	*>B_verse
2IVc	E-:maj/5	73.814	newline	voice	2e- 2g 2B-
2I	B-:maj	75.034	.	voice	2B- 2dd 2ff
=32	=32	=32	=32	=32	=32
2Vf	F:maj/4	76.254	.	voice	2F 2a 2cc
2I	B-:maj	77.474	.	voice	2B- 2dd 2ff
=33	=33	=33	=33	=33	=33
2IVc	E-:maj/5	78.694	.	voice	2e- 2g 2B-
2I7	B-:maj7	79.914	.	voice	2B- 2dd 2ff 2aa
=34	=34	=34	=34	=34	=34
2ivc	E-:min/5	81.134	.	voice	2e- 2g- 2B-
2I	B-:maj	82.354	.	voice	2B- 2dd 2ff
=35	=35	=35	=35	=35	=35
2IVc	E-:maj/5	83.574	newline	voice	2e- 2g 2B-
2I	B-:maj	84.797	.	voice	2B- 2dd 2ff
=36	=36	=36	=36	=36	=36
2Vf	F:maj/4	86.021	.	voice	2F 2a 2cc
2I	B-:maj	87.244	.	voice	2B- 2dd 2ff
=37	=37	=37	=37	=37	=37
2IVc	E-:maj/5	88.468	.	voice	2e- 2g 2B-
2I7	B-:maj7	89.691	.	voice	2B- 2dd 2ff 2aa
=38	=38	=38	=38	=38	=38
2ivc	E-:min/5	90.915	.	voice	2e- 2g- 2B-
2I	B-:maj	92.138	.	voice	2B- 2dd 2ff
=39	=39	=39	=39	=39	=39
*>C_prechorus	*>C_prechorus	*>C_prechorus	*>C_prechorus	*>C_prechorus	*>C_prechorus
2.Im7	B-:7	93.361	newline	voice	2B- 2dd 2ff 2aa
4-VII	A-:sus2	95.198	.	voice	4A- 4cc 4ee-
=40	=40	=40	=40	=40	=40
1vi7	G:min7	95.811	.	voice	1G 1b- 1dd 1ff
=41	=41	=41	=41	=41	=41
2.-VI	G-:maj	98.26	.	voice	2G- 2b- 2dd-
4-VII	A-:sus2(b7)	100.097	.	voice	4A- 4cc 4ee-
=42	=42	=42	=42	=42	=42
4I	B-:maj	100.709	.	voice	4B- 4dd 4ff
4vi7	G:min7	101.321	.	voice	4G 4b- 4dd 4ff
2V	F:maj	101.934	.	voice	2F 2a 2cc
=43	=43	=43	=43	=43	=43
*>D_chorus	*>D_chorus	*>D_chorus	*>D_chorus	*>D_chorus	*>D_chorus
2I	B-:maj	103.158	newline	voice	2B- 2dd 2ff
2Vb	F:maj/3	104.381	.	voice	2f 2A 2cc
=44	=44	=44	=44	=44	=44
2vi	G:min	105.603	.	voice	2G 2b- 2dd
2-VII	A-:maj6	106.826	.	voice	2A- 2cc 2ee-
=45	=45	=45	=45	=45	=45
2IV	E-:maj	108.048	.	voice	2E- 2g 2b-
2Ib	B-:maj/3	109.271	.	voice	2b- 2D 2ff
=46	=46	=46	=46	=46	=46
2II7	C:7	110.493	.	voice	2C 2e 2g 2b-
4V	F:maj	111.716	.	voice	4F 4a 4cc
4V+	F:aug	112.327	.	voice	4F 4a 4cc#
=47	=47	=47	=47	=47	=47
2I	B-:maj	112.938	newline	voice	2B- 2dd 2ff
2Vb	F:maj/3	114.161	.	voice	2f 2A 2cc
=48	=48	=48	=48	=48	=48
2vi	G:min	115.383	.	voice	2G 2b- 2dd
2-VII	A-:maj6	116.606	.	voice	2A- 2cc 2ee-
=49	=49	=49	=49	=49	=49
2IV	E-:maj	117.828	.	voice	2E- 2g 2b-
2Ib	B-:maj/3	119.051	.	voice	2b- 2D 2ff
=50	=50	=50	=50	=50	=50
2-iiio	D-:dim	120.273	.	voice	2D- 2f- 2a--
2ii7	C:min7	121.496	.	voice	2C 2e- 2g 2b-
=51	=51	=51	=51	=51	=51
*>C_trans	*>C_trans	*>C_trans	*>C_trans	*>C_trans	*>C_trans
2.Im7	B-:7	122.718	newline	synthesizer	2B- 2dd 2ff 2aa
4-VII	A-:sus2	124.53	.	synthesizer	4A- 4cc 4ee-
=52	=52	=52	=52	=52	=52
1vi7	G:min7	125.134	.	synthesizer	1G 1b- 1dd 1ff
=53	=53	=53	=53	=53	=53
2.-VI	G-:maj	127.549	.	synthesizer	2G- 2b- 2dd-
4-VII	A-:sus2(b7)	129.36	.	synthesizer	4A- 4cc 4ee-
=54	=54	=54	=54	=54	=54
4I	B-:maj	129.964	.	synthesizer	4B- 4dd 4ff
4VM7f	F:maj7/4	130.568	.	synthesizer	4F 4a 4cc 4ee-
2V	F:maj	131.172	.	synthesizer	2F 2a 2cc
=55	=55	=55	=55	=55	=55
*>B_verse	*>B_verse	*>B_verse	*>B_verse	*>B_verse	*>B_verse
2IVc	E-:maj/5	132.38	newline	voice	2e- 2g 2B-
2I	B-:maj	133.595	.	voice	2B- 2dd 2ff
=56	=56	=56	=56	=56	=56
2Vf	F:maj/4	134.811	.	voice	2F 2a 2cc
2I	B-:maj	136.027	.	voice	2B- 2dd 2ff
=57	=57	=57	=57	=57	=57
2IVc	E-:maj/5	137.243	.	voice	2e- 2g 2B-
2I7	B-:maj7	138.459	.	voice	2B- 2dd 2ff 2aa
=58	=58	=58	=58	=58	=58
2ivc	E-:min/5	139.675	.	voice	2e- 2g- 2B-
2I	B-:maj	140.891	.	voice	2B- 2dd 2ff
=59	=59	=59	=59	=59	=59
2IVc	E-:maj/5	142.107	newline	voice	2e- 2g 2B-
2I	B-:maj	143.321	.	voice	2B- 2dd 2ff
=60	=60	=60	=60	=60	=60
2Vf	F:maj/4	144.535	.	voice	2F 2a 2cc
2I	B-:maj	145.749	.	voice	2B- 2dd 2ff
=61	=61	=61	=61	=61	=61
2IVc	E-:maj/5	146.963	.	voice	2e- 2g 2B-
2I7	B-:maj7	148.177	.	voice	2B- 2dd 2ff 2aa
=62	=62	=62	=62	=62	=62
1I	B-:maj	149.392	.	voice	1B- 1dd 1ff
=63	=63	=63	=63	=63	=63
*>C_prechorus	*>C_prechorus	*>C_prechorus	*>C_prechorus	*>C_prechorus	*>C_prechorus
2.Im7	B-:7	151.82	newline	voice	2B- 2dd 2ff 2aa
4-VII	A-:sus2	153.639	.	voice	4A- 4cc 4ee-
=64	=64	=64	=64	=64	=64
1vi7	G:min7	154.246	.	voice	1G 1b- 1dd 1ff
=65	=65	=65	=65	=65	=65
2.Im7	B-:7	156.672	.	voice	2B- 2dd 2ff 2aa
4-VII	A-:sus2	158.491	.	voice	4A- 4cc 4ee-
=66	=66	=66	=66	=66	=66
1vi7	G:min7	159.098	.	voice	1G 1b- 1dd 1ff
=67	=67	=67	=67	=67	=67
*>C_prechorus	*>C_prechorus	*>C_prechorus	*>C_prechorus	*>C_prechorus	*>C_prechorus
2.Im7	B-:7	161.524	newline	voice	2B- 2dd 2ff 2aa
4-VII	A-:sus2	163.336	.	voice	4A- 4cc 4ee-
=68	=68	=68	=68	=68	=68
1vi7	G:min7	163.94	.	voice	1G 1b- 1dd 1ff
=69	=69	=69	=69	=69	=69
2.-VI	G-:maj	166.357	.	voice	2G- 2b- 2dd-
4-VII	A-:sus2(b7)	168.169	.	voice	4A- 4cc 4ee-
=70	=70	=70	=70	=70	=70
2I	B-:maj	168.773	.	voice	2B- 2dd 2ff
2VI7	G:7	169.982	.	voice	2G 2b 2dd 2ff
=71	=71	=71	=71	=71	=71
*>D_chorus	*>D_chorus	*>D_chorus	*>D_chorus	*>D_chorus	*>D_chorus
*C:	*C:	*	*	*	*C:
2I	C:maj	171.19	newline	voice	2C 2e 2g
2Vb	G:maj/3	172.416	.	voice	2g 2B 2dd
=72	=72	=72	=72	=72	=72
2vi	A:min	173.643	.	voice	2A 2cc 2ee
2-VII	B-:maj6	174.869	.	voice	2B- 2dd 2ff
=73	=73	=73	=73	=73	=73
2IV	F:maj	176.096	.	voice	2F 2a 2cc
2Ib	C:maj/3	177.322	.	voice	2c 2E 2g
=74	=74	=74	=74	=74	=74
2II7	D:7	178.549	.	voice	2D 2f# 2a 2cc
4V	G:maj	179.775	.	voice	4G 4b 4dd
4V+	G:aug	180.389	.	voice	4G 4b 4dd#
=75	=75	=75	=75	=75	=75
2I	C:maj	181.002	newline	voice	2C 2e 2g
2Vb	G:maj/3	181.976	.	voice	2g 2B 2dd
=76	=76	=76	=76	=76	=76
2vi	A:min	182.951	.	voice	2A 2cc 2ee
2-VII	B-:maj6	183.925	.	voice	2B- 2dd 2ff
=77	=77	=77	=77	=77	=77
2IV	F:maj	184.9	.	voice	2F 2a 2cc
2Ib	C:maj/3	185.874	.	voice	2c 2E 2g
=78	=78	=78	=78	=78	=78
2-iiio	E-:dim	186.848	.	voice	2E- 2g- 2b--
2ii7	D:min7	187.823	.	voice	2D 2f 2a 2cc
=79	=79	=79	=79	=79	=79
2I	C:maj	188.797	.	voice	2C 2e 2g
4V7	G:7	189.772	.	voice	4G 4b 4dd 4ff
4V+7	G:aug(b7)	190.259	.	voice	4G 4b 4dd# 4ff
=80	=80	=80	=80	=80	=80
*>C2_prechorus	*>C2_prechorus	*>C2_prechorus	*>C2_prechorus	*>C2_prechorus	*>C2_prechorus
4I	C:maj	190.746	newline	voice	4C 4e 4g
4vi	A:min	191.363	.	voice	4A 4cc 4ee
2V	G:maj	191.979	.	voice	2G 2b 2dd
=81	=81	=81	=81	=81	=81
*>D_fadeout	*>D_fadeout	*>D_fadeout	*>D_fadeout	*>D_fadeout	*>D_fadeout
2I	C:maj	193.212	newline	voice	2C 2e 2g
2Vb	G:maj/3	194.428	.	voice	2g 2B 2dd
=82	=82	=82	=82	=82	=82
2vi	A:min	195.643	.	voice	2A 2cc 2ee
2-VII	B-:maj6	196.858	.	voice	2B- 2dd 2ff
=83	=83	=83	=83	=83	=83
2IV	F:maj	198.074	.	voice	2F 2a 2cc
2Ib	C:maj/3	199.289	.	voice	2c 2E 2g
=84	=84	=84	=84	=84	=84
2II7	D:7	200.504	.	voice	2D 2f# 2a 2cc
4V	G:maj	201.72	.	voice	4G 4b 4dd
4V+	G:aug	202.327	.	voice	4G 4b 4dd#
=85	=85	=85	=85	=85	=85
2I	C:maj	202.935	newline	voice	2C 2e 2g
2Vb	G:maj/3	204.167	.	voice	2g 2B 2dd
=86	=86	=86	=86	=86	=86
2vi	A:min	205.399	.	voice	2A 2cc 2ee
2-VII	B-:maj6	206.631	.	voice	2B- 2dd 2ff
1r;	N	209.096	.	r	1r;
1r;	N	213.185	.	r	1r;
*-	*-	*-	*-	*-	*-
!!!OTL: Undercover Angel
!!!COC: Alan O'Day
!!!BillboardChartDate: 1977/08/27
!!!BillboardPeak: 1
!!!BillboardWeeksOnChart: 25
!!!SampleTargetRank: 31
!!!SampleActualRank: 31
!!!SampleID#: 0367
!!!RDF**harmony: **recip + pitch class of root + harmonic quality
!!!RDF**harte: Chris Harte's syntax, used by MIREX
!!!RDF**phrase: newline = linebreak in original McGill transcription
!!!RDF**timestamp: McGill audio timestamp in seconds
!!!RDF**leadinstrument: original McGill primary instrumentation annotation
!!!RDT: 2017/01/12/
!!!ENC: Nathaniel Condit-Schultz
!!!EST: Awating manual error checking and editing.
